SVG_Azure_Grouped/Deployment/GitHub.svg

<?xml version="1.0" encoding="UTF-8" standalone="no"?>
<!-- Generated by Microsoft Visio, SVG Export GitHub.svg Page-1 -->

<svg
   xmlns:dc="http://purl.org/dc/elements/1.1/"
   xmlns:cc="http://creativecommons.org/ns#"
   xmlns:rdf="http://www.w3.org/1999/02/22-rdf-syntax-ns#"
   xmlns:svg="http://www.w3.org/2000/svg"
   xmlns="http://www.w3.org/2000/svg"
   xmlns:sodipodi="http://sodipodi.sourceforge.net/DTD/sodipodi-0.dtd"
   xmlns:inkscape="http://www.inkscape.org/namespaces/inkscape"
   width="0.78736115in"
   height="0.70569128in"
   viewBox="0 0 56.690001 50.809691"
   xml:space="preserve"
   class="st2"
   version="1.1"
   id="svg25"
   sodipodi:docname="GitHub.svg"
   style="font-size:12px;overflow:visible;color-interpolation-filters:sRGB;fill:none;fill-rule:evenodd;stroke-linecap:square;stroke-miterlimit:3"
   inkscape:version="0.92.5 (2060ec1f9f, 2020-04-08)"><metadata
   id="metadata31"><rdf:RDF><cc:Work
       rdf:about=""><dc:format>image/svg+xml</dc:format><dc:type
         rdf:resource="http://purl.org/dc/dcmitype/StillImage" /></cc:Work></rdf:RDF></metadata><defs
   id="defs29" /><sodipodi:namedview
   pagecolor="#ffffff"
   bordercolor="#666666"
   borderopacity="1"
   objecttolerance="10"
   gridtolerance="10"
   guidetolerance="10"
   inkscape:pageopacity="0"
   inkscape:pageshadow="2"
   inkscape:window-width="640"
   inkscape:window-height="480"
   id="namedview27"
   showgrid="false"
   inkscape:zoom="1.963572"
   inkscape:cx="37.795281"
   inkscape:cy="14.457625"
   inkscape:window-x="0"
   inkscape:window-y="0"
   inkscape:window-maximized="0"
   inkscape:current-layer="svg25" />
	<style
   type="text/css"
   id="style2">
	<![CDATA[
		.st1 {fill:#1b1f23;stroke:none;stroke-linecap:butt;stroke-width:0.75}
		.st2 {fill:none;fill-rule:evenodd;font-size:12px;overflow:visible;stroke-linecap:square;stroke-miterlimit:3}
	]]>
	</style>

	<g
   id="g23"
   transform="translate(-5.66929,-5.1043695)">
		<title
   id="title4">Page-1</title>
		<g
   id="group17281-1"
   transform="translate(5.66929,-34.0157)">
			<title
   id="title6">GitHub.17281</title>
			<g
   id="group17282-2">
				<title
   id="title8">Page-1</title>
				<g
   id="group17283-3">
					<title
   id="title10">github-2</title>
					<g
   id="group17284-4">
						<title
   id="title12">Sheet.17284</title>
						<g
   id="shape17285-5">
							<title
   id="title14">Sheet.17285</title>
							<path
   d="M 28.35,39.12 C 12.68,39.12 0,50.78 0,65.17 0,76.7 8.11,86.42 19.39,89.88 c 1.41,0.23 1.93,-0.55 1.93,-1.24 0,-0.61 -0.03,-2.67 -0.03,-4.85 -7.12,1.2 -8.96,-1.59 -9.53,-3.05 -0.31,-0.76 -1.7,-3.07 -2.91,-3.69 -0.99,-0.48 -2.41,-1.7 -0.03,-1.73 2.24,-0.03 3.83,1.9 4.36,2.68 2.55,3.94 6.63,2.82 8.25,2.14 0.26,-1.69 1,-2.83 1.81,-3.48 C 16.93,76 10.35,73.76 10.35,63.81 c 0,-2.84 1.1,-5.19 2.91,-7.01 -0.3,-0.65 -1.29,-3.33 0.27,-6.9 0,0 2.38,-0.68 7.79,2.66 2.27,-0.58 4.68,-0.87 7.09,-0.87 2.41,0 4.82,0.29 7.09,0.87 5.43,-3.38 7.79,-2.66 7.79,-2.66 1.56,3.57 0.57,6.25 0.28,6.9 1.82,1.82 2.92,4.14 2.92,7.01 0,9.98 -6.63,12.19 -12.93,12.85 1.02,0.82 1.9,2.38 1.9,4.81 0,3.49 -0.03,6.3 -0.03,7.17 0,0.69 0.54,1.5 1.96,1.24 C 48.58,86.42 56.69,76.66 56.69,65.17 56.69,50.78 44,39.12 28.35,39.12 Z"
   class="st1"
   id="path16"
   inkscape:connector-curvature="0"
   style="fill:#1b1f23;stroke:none;stroke-width:0.75;stroke-linecap:butt" />
						</g>
					</g>
				</g>
			</g>
		</g>
	</g>
</svg>

<?xml version="1.0" encoding="UTF-8" standalone="no"?>
<!DOCTYPE svg PUBLIC "-//W3C//DTD SVG 1.1//EN" "http://www.w3.org/Graphics/SVG/1.1/DTD/svg11.dtd">
<!-- Generated by Microsoft Visio, SVG Export GitHub.svg Page-1 -->
<svg xmlns="http://www.w3.org/2000/svg" xmlns:xlink="http://www.w3.org/1999/xlink" xmlns:ev="http://www.w3.org/2001/xml-events"
		width="0.944882in" height="1.25197in" viewBox="0 0 68.0315 90.1417" xml:space="preserve" color-interpolation-filters="sRGB"
		class="st2">
	<style type="text/css">
	<![CDATA[
		.st1 {fill:#1b1f23;stroke:none;stroke-linecap:butt;stroke-width:0.75}
		.st2 {fill:none;fill-rule:evenodd;font-size:12px;overflow:visible;stroke-linecap:square;stroke-miterlimit:3}
	]]>
	</style>

	<g>
		<title>Page-1</title>
		<g id="group16888-1" transform="translate(5.66929,-34.0157)">
			<title>GitHub.16888</title>
			<g id="group16889-2">
				<title>Page-1</title>
				<g id="group16890-3">
					<title>github-2</title>
					<g id="group16891-4">
						<title>Sheet.16891</title>
						<g id="shape16892-5">
							<title>Sheet.16892</title>
							<path d="M28.35 39.12 C12.68 39.12 0 50.78 0 65.17 C0 76.7 8.11 86.42 19.39 89.88 C20.8 90.11 21.32 89.33
										 21.32 88.64 C21.32 88.03 21.29 85.97 21.29 83.79 C14.17 84.99 12.33 82.2 11.76 80.74 C11.45
										 79.98 10.06 77.67 8.85 77.05 C7.86 76.57 6.44 75.35 8.82 75.32 C11.06 75.29 12.65 77.22
										 13.18 78 C15.73 81.94 19.81 80.82 21.43 80.14 C21.69 78.45 22.43 77.31 23.24 76.66 C16.93
										 76 10.35 73.76 10.35 63.81 C10.35 60.97 11.45 58.62 13.26 56.8 C12.96 56.15 11.97 53.47
										 13.53 49.9 C13.53 49.9 15.91 49.22 21.32 52.56 C23.59 51.98 26 51.69 28.41 51.69 C30.82
										 51.69 33.23 51.98 35.5 52.56 C40.93 49.18 43.29 49.9 43.29 49.9 C44.85 53.47 43.86 56.15
										 43.57 56.8 C45.39 58.62 46.49 60.94 46.49 63.81 C46.49 73.79 39.86 76 33.56 76.66 C34.58
										 77.48 35.46 79.04 35.46 81.47 C35.46 84.96 35.43 87.77 35.43 88.64 C35.43 89.33 35.97 90.14
										 37.39 89.88 C48.58 86.42 56.69 76.66 56.69 65.17 C56.69 50.78 44 39.12 28.35 39.12 Z"
									class="st1"/>
						</g>
					</g>
				</g>
			</g>
		</g>
	</g>
</svg>
